X: 899
T: Jackson's Morning Brush
N:"Collected by Delaney"
B:O'Neill's 899
Z:Transcribed by Dan G. Petersen, dangp@post6.tele.dk
M:6/8
L:1/8
K:D
D|DFE EFD|DFA AFA|BAB def|gfg e2D|
DFE EFD|DFA AFA|BAB d2e|fdd d2:|
g|fed faf|ede fdB|AFA def|gfg e2g|
fed faf|ede fdB|AFA d2e|fdd d2:|
g|fdf ece|dBd AFA|DFA def|gfg e2g|
fdf ece|dBd AFA|DFA d2e|fdd d2g|
fdf ece|dBd AFA|DFA def|gfg e2g|
afd gec|dcB AFA|DFA d2e|fdd d2||
g|fed faf|gbg faf|fed faf|gfg e2g|
fed faf|gbg faf|fed eag|fdd d2:|
